!!!COM:	la Rue, Pierre de
!!!CDT:	~1452///-1518/11/20
!!!OPR:	Missa Ista est speciosa
!!!ONM:	5
!!!OTL:	Agnus Dei
!!!AGN:	Mass; Agnus Dei
!!!SCT:	Rue1018e
!!!SCA:	Rue1018e
!!!voices-OPR:	5
!!!voices:	5
**kern	**kern	**kern	**kern	**kern
*staff5	*staff4	*staff3	*staff2	*staff1
*Ivox	*Ivox	*Ivox	*Ivox	*Ivox
*I"Bassus2	*I"Bassus1	*I"Tenor	*I"Contra	*I"Discantus
*I'B2	*I'B1	*I'T	*I'C	*I'D
*>[A,B]	*>[A,B]	*>[A,B]	*>[A,B]	*>[A,B]
*>A	*>A	*>A	*>A	*>A
*clefF4	*clefF4	*clefGv2	*clefGv2	*clefG2
*k[]	*k[]	*k[]	*k[]	*k[]
*M3/1	*M3/1	*M3/1	*M3/1	*M3/1
*met(O)	*met(O)	*met(O)	*met(O)	*met(O)
!!section: Agnus Dei I
!!!OMD: Agnus Dei I
=1-	=1-	=1-	=1-	=1-
1.E	0.r	0.r	2.E/	0.r
.	.	.	4F/	.
.	.	.	4G/	.
.	.	.	4A/	.
2D\	.	.	1B	.
2E\	.	.	.	.
2C/	.	.	[2A/	.
=2	=2	=2	=2	=2
2D\	1r	0.r	2A/]	1r
2E\	.	.	2G/	.
0AA	0E	.	2A/	1r
.	.	.	1c	.
.	.	.	.	2.e/
.	.	.	4B\	.
.	.	.	4A/	4f/
=3	=3	=3	=3	=3
1.E	2E\	0.B	1G	4g/
.	.	.	.	4a/
.	1G	.	.	2.b\
.	.	.	1r	.
.	.	.	.	4e/
4D\	4F\	.	.	1a
4C/	4E\	.	.	.
2D\	2F\	.	1r	.
2E\	2G\	.	.	2g/
=4	=4	=4	=4	=4
0AA	2E\	0A	2r	2a/
.	1A	.	2E/	1cc
.	.	.	2.E/	.
.	4G\	.	.	4b\
.	4F\	.	4F/	4a/
1r	1E	1B	4G/	1g
.	.	.	4A/	.
.	.	.	[2B\	.
=5	=5	=5	=5	=5
0.r	2r	0B	2B\]	0.r
.	2.E\	.	2.G/	.
.	4F\	.	4A/	.
.	4G\	.	4B\	.
.	4A\	.	4c\	.
.	2B\	1r	2d\	.
.	[2A\	.	[2c\	.
=6	=6	=6	=6	=6
1EE	4A\]	0.r	2c\]	2r
.	4G\	.	.	.
.	2G\	.	2B\	2e/
1AA	1A	.	2A/	2.e/
.	.	.	4G/	.
.	.	.	4F/	4f/
2GG/	1B	.	1E	4g/
.	.	.	.	4a/
[2EE/	.	.	.	[2b\
=7	=7	=7	=7	=7
2EE/]	2B\	0.r	0.r	2b\]
1E	1c	.	.	2.g/
.	.	.	.	4a/
4D\	4B\	.	.	4b\
4C/	4A\	.	.	4cc\
2BB/	2G\	.	.	2dd\
[2AA/	[2A\	.	.	[2cc\
=8	=8	=8	=8	=8
2AA/]	2A\]	0c	0.r	2cc\]
2E\	2G\	.	.	2b\
2F\	0A	.	.	2a/
4E\	.	.	.	4g/
4D\	.	.	.	4f/
2C/	.	1c	.	2e/
[2FF/	.	.	.	[2a/
=9	=9	=9	=9	=9
2FF/]	0.r	1.A	2r	4a/]
.	.	.	.	4g/
4FF/	.	.	1c	4f/
4GG/	.	.	.	4e/
4AA/	.	.	.	2f/
4BB/	.	.	.	.
2C/	.	2G/	2c\	1e
1D	.	1F	2A/	.
.	.	.	2B\	2d/
=10	=10	=10	=10	=10
0AA	2r	0.E	1c	0e
.	1A	.	.	.
.	.	.	1c	.
.	2A\	.	.	.
1EE	2G\	.	2B\	1r
.	2E\	.	2G/	.
=11	=11	=11	=11	=11
1AA	2F\	0.r	2A/	2r
.	1E	.	2.c\	1cc
1.C	.	.	.	.
.	.	.	4B\	.
.	1E	.	4A/	2cc\
.	.	.	4G/	.
.	.	.	2A/	2a/
2BB/	[2D\	.	[2G/	2b\
=12	=12	=12	=12	=12
1AA	2D\]	0.r	4G/]	1cc
.	.	.	4F#i/	.
.	2C/	.	2F#i/	.
1GG	2.D\	.	1G	2b\
.	.	.	.	2g/
.	4E\	.	.	.
1r	4F\	.	1r	2a/
.	4G\	.	.	.
.	2A\	.	.	[2cc\
=13	=13	=13	=13	=13
2r	2G\	0E	0.r	4cc\]
.	.	.	.	4b\
2.AA/	2c\	.	.	4a/
.	.	.	.	4g/
.	2.c\	.	.	2a/
4BB/	.	.	.	.
2C/	.	.	.	1g
.	4B\	.	.	.
1D	1A	1D	.	.
.	.	.	.	2f#i/
=14	=14	=14	=14	=14
1GG	1G	0G	2r	0.g
.	.	.	2d\	.
1C	1r	.	2e\	.
.	.	.	4d\	.
.	.	.	4c\	.
2GG/	1r	1G	2B\	.
[2C/	.	.	[2e\	.
=15	=15	=15	=15	=15
4C/]	1r	2A/	4e\]	0.r
4BB/	.	.	4d\	.
4AA/	.	1c	4c\	.
4GG/	.	.	4B\	.
2FF/	1r	.	2A/	.
2GG/	.	2B\	1G	.
1AA	1C	1A	.	.
.	.	.	2F#i/	.
=16	=16	=16	=16	=16
1GG	1D	1B	0.G	2r
.	.	.	.	2d/
1C	2C/	1r	.	2e/
.	2.G\	.	.	4d/
.	.	.	.	4c/
2GG/	.	1r	.	2B/
.	4F\	.	.	.
[2C/	4E\	.	.	[2e/
.	4D\	.	.	.
=17	=17	=17	=17	=17
4C/]	2.C/	0e	1r	4e/]
4BB/	.	.	.	4d/
4AA/	.	.	.	4c/
4GG/	4D\	.	.	4B/
1C	1E	.	1r	2A/
.	.	.	.	2G/
1C	1C	1e	1E	1c
=18	=18	=18	=18	=18
0.GG	0D	0d	1G	0.B
.	.	.	2D/	.
.	.	.	2.G/	.
.	1D	1d	.	.
.	.	.	4A/	.
.	.	.	2B\	.
=19	=19	=19	=19	=19
0.C	0E	0.c	2c\	1r
.	.	.	1A	.
.	.	.	.	1r
.	.	.	4G/	.
.	.	.	4F/	.
.	[1G	.	1E	1e
=20	=20	=20	=20	=20
0.GG	0.G]	0.B	0.r	1g
.	.	.	.	2d/
.	.	.	.	2.g/
.	.	.	.	4a/
.	.	.	.	2b\
=21	=21	=21	=21	=21
0.r	1F	0.A	0.r	1cc
.	2F\	.	.	2cc\
.	2.F\	.	.	1a
.	4G\	.	.	.
.	4A\	.	.	4g/
.	4B\	.	.	4f/
=22	=22	=22	=22	=22
0.r	2c\	2r	1r	2e/
.	2F\	2A/	.	1a
.	1G	1B	1r	.
.	.	.	.	2.g/
.	1A	1c	1c	.
.	.	.	.	4f#i/
.	.	.	.	2f#i/
=23	=23	=23	=23	=23
0GG	1G	0d	2B\	0.g
.	.	.	1G	.
.	1r	.	.	.
.	.	.	4F/	.
.	.	.	4E/	.
1GG	1r	1d	2.D/	.
.	.	.	4E/	.
=24	=24	=24	=24	=24
2D\	0.r	2d\	2F/	1r
1C	.	1e	1G	.
.	.	.	.	1r
2D\	.	1d	2F/	.
2AA/	.	.	1E	1cc
2C/	.	2c#i\	.	.
=25	=25	=25	=25	=25
0GG	0G	0d	0.D	2b\
.	.	.	.	1g
.	.	.	.	4f/
.	.	.	.	4e/
4GG/	1G	1r	.	2.d/
4AA/	.	.	.	.
4BB/	.	.	.	.
4C/	.	.	.	4e/
=26	=26	=26	=26	=26
2D\	2F\	1r	0.r	2f/
2GG/	2.D\	.	.	1g
1D	.	2r	.	.
.	4E\	.	.	.
.	4F\	1d	.	2f/
.	4G\	.	.	.
1AA	1A	.	.	1e
.	.	2c\	.	.
=27	=27	=27	=27	=27
2r	1D	2B\	2r	1d
1D	.	1A	2A/	.
.	2r	.	2F/	1r
2GG/	1D	2G/	2G/	.
2D\	.	1F	1A	1r
2AA/	2C/	.	.	.
=28	=28	=28	=28	=28
2.C/	2.E\	1E	2G/	2r
.	.	.	2E/	2a/
4BB/	4D\	.	.	.
2AA/	2C/	1r	2F/	2f/
2GG/	2BB/	.	1E	2g/
1FF	1AA	2r	.	2a/
.	.	2A/	2D/	2f/
=29	=29	=29	=29	=29
1EE	2r	2B\	1E	1g
.	2E\	2c\	.	.
1r	2D\	2d\	1r	2f/
.	2E\	1B	.	2.e/
1r	1F	.	1r	.
.	.	.	.	4d/
.	.	[2A/	.	2d/
=30	=30	=30	=30	=30
1EE	1E	4A/]	2r	0e
.	.	4G/	.	.
.	.	2G/	2B\	.
2.AA/	2r	1A	2.c\	.
.	2E\	.	.	.
4GG/	.	.	4B\	.
2FF/	2F\	1r	2A/	1r
2EE/	2G\	.	2G/	.
=31	=31	=31	=31	=31
2AA/	2A\	1r	2F/	1r
2C/	1A	.	2E/	.
1BB	.	2r	1D	2r
.	2G\	2d\	.	2b\
2.AA/	2A\	2c\	1E	2.cc\
.	2E\	2A/	.	.
4GG/	.	.	.	4b\
=32	=32	=32	=32	=32
2FF/	2r	2.c\	1r	2a/
2EE/	2E\	.	.	2g/
.	.	4B\	.	.
1AA	2F\	4A/	1r	2f/
.	.	4G/	.	.
.	2C/	4F/	.	2e/
.	.	4E/	.	.
2r	1D	1F	2r	2d/
2D\	.	.	2B\	4e/
.	.	.	.	4d/
=33	=33	=33	=33	=33
2C/	2AA/	0.E	2.c\	0.e
1AA	2.C/	.	.	.
.	.	.	4B\	.
.	.	.	2A/	.
.	4D\	.	.	.
4GG/	4E\	.	1e	.
4FF/	4F\	.	.	.
1EE	1G	.	.	.
.	.	.	4d\	.
.	.	.	4c\	.
=34	=34	=34	=34	=34
0.EEl	0.Gl	0.El	1B	0.el
.	.	.	0Bl	.
!!LO:LB:i:g=z
=35||	=35||	=35||	=35||	=35||
*>B	*>B	*>B	*>B	*>B
*clefF4	*clefF4	*clefGv2	*clefGv2	*clefG2
*k[]	*k[]	*k[]	*k[]	*k[]
*M2/1	*M2/1	*M2/1	*M2/1	*M2/1
*met(C2)	*met(C2)	*met(C2)	*met(C2)	*met(C2)
!!section: Agnus Dei II
!!!OMD: Agnus Dei II
0AA	0r	0r	1r	0r
.	.	.	1A	.
=36.	=36.	=36.	=36.	=36.
0AA	0r	0r	1A	0r
.	.	.	2.c\	.
.	.	.	4d\	.
=37	=37	=37	=37	=37
1r	0r	0c	[0e	0r
1AA	.	.	.	.
=38.	=38.	=38.	=38.	=38.
1AA	1r	0c	0e]	0r
2.C/	1E	.	.	.
4D\	.	.	.	.
=39	=39	=39	=39	=39
[0E	1E	[0B	1r	1e
.	2.G\	.	[1e	1e
.	4A\	.	.	.
=40.	=40.	=40.	=40.	=40.
0E]	1B	0B]	2e\]	2.g/
.	.	.	4d\	.
.	.	.	4c\	4a/
.	1G	.	2B\	1b
.	.	.	[2e\	.
=41	=41	=41	=41	=41
1r	0A	1A	2e\]	0cc
.	.	.	1c	.
1AA	.	[1c	.	.
.	.	.	2A/	.
=42.	=42.	=42.	=42.	=42.
1AA	1r	2c\]	2.c\	0cc
.	.	2B\	.	.
.	.	.	4d\	.
2.C/	1E	1A	[1e	.
4D\	.	.	.	.
=43	=43	=43	=43	=43
[0E	1E	0G	2e\]	[0b
.	.	.	4d\	.
.	.	.	4c\	.
.	2.G\	.	2B\	.
.	.	.	2E/	.
.	4A\	.	.	.
=44.	=44.	=44.	=44.	=44.
0E]	1B	0G	1e	0b]
.	1E	.	1e	.
=45	=45	=45	=45	=45
1r	1.F	0A	[0c	1a
[1AA	.	.	.	[1cc
.	4E\	.	.	.
.	4D\	.	.	.
=46.	=46.	=46.	=46.	=46.
2AA/]	1C	0A	1c]	2cc\]
2GG/	.	.	.	2b\
1FF	1F	.	1d	1a
=47	=47	=47	=47	=47
0EE	1G	0B	1.e	0g
.	1E	.	.	.
.	.	.	2B\	.
=48.	=48.	=48.	=48.	=48.
1r	1G	0r	2e\	0g
.	.	.	4d\	.
.	.	.	4c\	.
1E	1G	.	1B	.
=49	=49	=49	=49	=49
1F	2.D\	0r	2A/	0a
.	.	.	1d	.
.	4E\	.	.	.
[1D	4F\	.	.	.
.	4G\	.	.	.
.	[2A\	.	2A/	.
=50.	=50.	=50.	=50.	=50.
1D]	2A\]	0r	2d\	0a
.	2.G\	.	4c\	.
.	.	.	4B\	.
1D	.	.	1A	.
.	4F#i\	.	.	.
.	2F#i\	.	.	.
=51	=51	=51	=51	=51
2.GG/	[0G	0r	1G	1.b
4AA/	.	.	.	.
2BB/	.	.	2r	.
[2C/	.	.	[2e\	[2g/
=52.	=52.	=52.	=52.	=52.
4C/]	0G]	0r	2e\]	2g/]
4D\	.	.	.	.
4E\	.	.	4d\	4f/
4F\	.	.	4c\	4e/
2G\	.	.	2B\	2d/
2C/	.	.	[2e\	[2g/
=53	=53	=53	=53	=53
0C	[0G	0r	2e\]	4g/]
.	.	.	.	4f/
.	.	.	2.c\	1e
.	.	.	4d\	.
.	.	.	2e\	4d/
.	.	.	.	4c/
=54.	=54.	=54.	=54.	=54.
2r	0G]	0r	2d\	2B/
1C	.	.	2.e\	2.g/
.	.	.	4d\	4f/
2C/	.	.	4c\	[2e/
.	.	.	[4B\	.
=55	=55	=55	=55	=55
1D	0r	0r	2B\]	2e/]
.	.	.	2B\	2d/
2C/	.	.	2c\	2e/
[2F\	.	.	4A/	2c/
.	.	.	4B\	.
=56.	=56.	=56.	=56.	=56.
4F\]	0r	[0d	4A/	2d/
4E\	.	.	4G/	.
2.D\	.	.	4F/	2.f/
.	.	.	4E/	.
.	.	.	2D/	.
4C/	.	.	.	4e/
4BB/	.	.	[2G/	4d/
4AA/	.	.	.	4c/
=57	=57	=57	=57	=57
0GG	1G	0d]	2G/]	2B/
.	.	.	4F/	2.c/
.	.	.	4E/	.
.	1G	.	1D	.
.	.	.	.	4B/
.	.	.	.	2B/
=58.	=58.	=58.	=58.	=58.
1r	2.E\	0e	0C	0c
.	4F\	.	.	.
2r	2G\	.	.	.
[2AA/	[2A\	.	.	.
=59	=59	=59	=59	=59
2AA/]	2A\]	[0e	0r	0r
1C	2G\	.	.	.
.	2A\	.	.	.
2AA/	2c\	.	.	.
=60.	=60.	=60.	=60.	=60.
0E	1B	0e]	1r	1g
.	1E	.	1G	1g
=61	=61	=61	=61	=61
1AA	0r	[0c	1A	2.e/
.	.	.	.	4f/
2r	.	.	2G/	2g/
[2AA/	.	.	2F/	[2a/
=62.	=62.	=62.	=62.	=62.
2AA/]	1r	0c]	1.E	2a/]
1C	.	.	.	2g/
.	2r	.	.	2a/
2AA/	[2A\	.	2F/	2cc\
=63	=63	=63	=63	=63
1BB	2A\]	1d	1D	1b
.	2G\	.	.	.
1AA	1A	1c	1E	2e/
.	.	.	.	[2a/
=64.	=64.	=64.	=64.	=64.
1r	1E	1B	[0e	2a/]
.	.	.	.	2g/
2r	2r	1A	.	1a
[2AA/	2A\	.	.	.
=65	=65	=65	=65	=65
2AA/]	2G\	0c	0e]	1e
1C	2.E\	.	.	.
.	.	.	.	2r
.	4F\	.	.	.
4BB/	4G\	.	.	2a/
4AA/	4A\	.	.	.
=66.	=66.	=66.	=66.	=66.
0E	2B\	[0B	1r	2g/
.	2G\	.	.	2.e/
.	1G	.	[1e	.
.	.	.	.	4f/
.	.	.	.	4g/
.	.	.	.	4a/
=67	=67	=67	=67	=67
0E	2r	0B]	2e\]	2b\
.	1G	.	4d\	2g/
.	.	.	4c\	.
.	.	.	2B\	1g
.	4F\	.	2e\	.
.	4E\	.	.	.
=68.	=68.	=68.	=68.	=68.
2r	2F\	0r	2d\	2r
1C	1E	.	2e\	1g
.	.	.	1c	.
2E\	4D\	.	.	4f/
.	4C/	.	.	4e/
=69	=69	=69	=69	=69
2D\	2D\	0r	2B\	2f/
1C	2E\	.	2c\	1e
.	1F	.	2A/	.
2BB/	.	.	[2B\	2d/
=70.	=70.	=70.	=70.	=70.
2C/	0E	[0e	4B\]	2e/
.	.	.	4A/	.
2AA/	.	.	1A	2c/
1E	.	.	.	1B
.	.	.	2G#i/	.
=71	=71	=71	=71	=71
1AA	1r	0e]	1A	1A
2r	2r	.	1E	1r
[2E\	[2G\	.	.	.
=72.	=72.	=72.	=72.	=72.
2E\]	2G\]	1c	0r	0r
1F	1A	.	.	.
.	.	1d	.	.
[2D\	[2F\	.	.	.
=73	=73	=73	=73	=73
2D\]	2F\]	1B	0r	0r
1E	1G	.	.	.
.	.	1c	.	.
[2C/	[2E\	.	.	.
=74.	=74.	=74.	=74.	=74.
2C/]	2E\]	1A	0r	[0e
2AA/	1A	.	.	.
1E	.	1B	.	.
.	2G\	.	.	.
=75	=75	=75	=75	=75
0AA	1A	0A	0c	0e]
.	1E	.	.	.
=76.	=76.	=76.	=76.	=76.
1r	2.G\	0r	2.B\	0d
.	4A\	.	4c\	.
1D	1F	.	1A	.
=77	=77	=77	=77	=77
2E\	1.E	[0E	[0G	[0g
1C	.	.	.	.
4BB/	4D\	.	.	.
4AA/	4C/	.	.	.
=78.	=78.	=78.	=78.	=78.
1GG	1BB	0E]	0G]	0g]
1EE	1C	.	.	.
=79	=79	=79	=79	=79
0FF	0AA	0D	1r	0a
.	.	.	1d	.
=80.	=80.	=80.	=80.	=80.
[0EE	[0BB	[0G	1.e	[0g
.	.	.	4d\	.
.	.	.	4c\	.
=81	=81	=81	=81	=81
0EE]	0BB]	0G]	1B	0g]
.	.	.	[1e	.
=82.	=82.	=82.	=82.	=82.
0r	0r	0A	2e\]	1e
.	.	.	1.c	.
.	.	.	.	[1f
=83	=83	=83	=83	=83
0r	0r	1G	2d\	2f/]
.	.	.	1B	2e/
.	.	1E	.	[1e
.	.	.	[2c\	.
=84.	=84.	=84.	=84.	=84.
0r	0r	0F	4c\]	1e]
.	.	.	4B\	.
.	.	.	4A/	.
.	.	.	4G/	.
.	.	.	1A	1d
=85	=85	=85	=85	=85
0EE	1BB	[0E	2r	[0e
.	.	.	2B\	.
.	2.E\	.	2c\	.
.	.	.	[2B\	.
.	4D\	.	.	.
=86.	=86.	=86.	=86.	=86.
0EE	2C/	0E]	4B\]	0e]
.	.	.	4A/	.
.	4BB/	.	1A	.
.	4AA/	.	.	.
.	1BB	.	.	.
.	.	.	2G#i/	.
=87	=87	=87	=87	=87
1AA	2AA/	0r	2A/	0r
.	2.C/	.	2.E/	.
1C	.	.	.	.
.	4D\	.	4F/	.
.	4E\	.	4G/	.
.	4F\	.	4A/	.
=88.	=88.	=88.	=88.	=88.
2GG/	2G\	0r	2B\	0r
2BB/	1D	.	1G	.
1AA	.	.	.	.
.	2C/	.	2F#i/	.
=89	=89	=89	=89	=89
[0GG	1D	0r	2G/	[0b
.	.	.	1d	.
.	2r	.	.	.
.	[2G\	.	[2e\	.
=90.	=90.	=90.	=90.	=90.
0GG]	2G\]	0r	2e\]	0b]
.	4F\	.	4d\	.
.	4E\	.	4c\	.
.	2D\	.	1d	.
.	2G\	.	.	.
=91	=91	=91	=91	=91
2.C/	2.E\	0r	0c	0cc
4D\	4F\	.	.	.
2E\	2G\	.	.	.
[2F\	[2A\	.	.	.
=92.	=92.	=92.	=92.	=92.
2F\]	2A\]	0r	0r	0a
2.D\	2.F\	.	.	.
4E\	4G\	.	.	.
2F\	2A\	.	.	.
=93	=93	=93	=93	=93
1G	2B\	[0B	0d	[0g
.	1G	.	.	.
1GG	.	.	.	.
.	[2G\	.	.	.
=94.	=94.	=94.	=94.	=94.
1r	2G\]	0B]	1d	0g]
.	4F\	.	.	.
.	4E\	.	.	.
1GG	2D\	.	2d\	.
.	2G\	.	[2e\	.
=95	=95	=95	=95	=95
1AA	2E\	0c	4e\]	1r
.	.	.	4d\	.
.	1F	.	4c\	.
.	.	.	4B\	.
[1FF	.	.	[1A	[1cc
.	4E\	.	.	.
.	4D\	.	.	.
=96.	=96.	=96.	=96.	=96.
1FF]	0C	0A	2A/]	1cc]
.	.	.	2G/	.
1FF	.	.	2F/	1cc
.	.	.	2E/	.
=97	=97	=97	=97	=97
1GG	0r	0G	2D/	1b
.	.	.	1E	.
1EE	.	.	.	1g
.	.	.	[2C/	.
=98.	=98.	=98.	=98.	=98.
0FF	[0C	1r	2C/]	0a
.	.	.	2.F/	.
.	.	[1c	.	.
.	.	.	4G/	.
.	.	.	[2A/	.
=99	=99	=99	=99	=99
1FF	0C]	1c]	4A/]	1a
.	.	.	4F/	.
.	.	.	2F/	.
2EE/	.	[1c	2G/	2g/
[2FF/	.	.	[2F/	[2a/
=100.	=100.	=100.	=100.	=100.
4FF/]	1C	1c]	2F/]	2a/]
4GG/	.	.	.	.
4AA/	.	.	4E/	4g/
4BB/	.	.	4D/	4f/
2C/	1C	1c	2E/	2e/
2FF/	.	.	2F/	[2a/
=101	=101	=101	=101	=101
1GG	1.G	1B	1D	2a/]
.	.	.	.	2g/
1GG	.	1G	[1d	[1g
.	4F\	.	.	.
.	4E\	.	.	.
=102.	=102.	=102.	=102.	=102.
0D	1D	0A	1d]	2g/]
.	.	.	.	4f#i/
.	.	.	.	4e/
.	2r	.	1d	1f#i
.	2D\	.	.	.
=103	=103	=103	=103	=103
[0GG	2E\	[0G	2B\	[0g
.	1G	.	1e	.
.	4F\	.	[2d\	.
.	4E\	.	.	.
=104.	=104.	=104.	=104.	=104.
0GG]	2D\	0G]	2d\]	0g]
.	2E\	.	2.c\	.
.	1D	.	.	.
.	.	.	4B\	.
.	.	.	2B\	.
=105	=105	=105	=105	=105
*M3/1	*M3/1	*M3/1	*M3/1	*M3/1
*met(3)	*met(3)	*met(3)	*met(3)	*met(3)
0.r	1.C	1.E	0.c	0.r
.	2D\	2F/	.	.
.	1E	1G	.	.
=106.	=106.	=106.	=106.	=106.
0.r	1F	1A	0.r	0.r
.	1G	1B	.	.
.	1A	1c	.	.
=107	=107	=107	=107	=107
1.GG	0.D	1.d	1.B	0.r
2AA/	.	2c\	2c\	.
1BB	.	2B\	1d	.
.	.	2A/	.	.
=108.	=108.	=108.	=108.	=108.
1C	0.r	1.A	1e	0.r
1D	.	.	1d	.
.	.	2G#i/	.	.
1E	.	1G#i	1B	.
=109	=109	=109	=109	=109
0AA	1.C	0A	0.c	1.e
.	2D\	.	.	2f/
1r	1E	1G	.	1g
=110.	=110.	=110.	=110.	=110.
0.r	1F	1c	0.r	1a
.	1G	1B	.	1b
.	1A	1A	.	1cc
=111	=111	=111	=111	=111
1.GG	0.D	0d	1.B	2b\
.	.	.	.	2g/
.	.	.	.	1.b
2AA/	.	.	2c\	.
1BB	.	1d	1d	.
.	.	.	.	2a/
=112.	=112.	=112.	=112.	=112.
1C	0.r	1c	1e	1.a
1D	.	0B	1d	.
.	.	.	.	2g#i/
1E	.	.	1B	1g#i
=113	=113	=113	=113	=113
1.AA	0E	1r	1.c	1a
.	.	1A	.	1.cc
2BB/	.	.	2d\	.
1C	1E	1G	1e	.
.	.	.	.	2b\
=114.	=114.	=114.	=114.	=114.
1D	1F	1F	1A	1a
1.GG	1D	1G	1d	1.b
.	2BB/	1E	1G	.
2AA/	2C/	.	.	2a/
=115	=115	=115	=115	=115
1BB	1D	1D	1d	2g/
.	.	.	.	2f/
1C	1E	1G	1c	1e
[1FF	1C	1F	1A	[1a
=116.	=116.	=116.	=116.	=116.
2FF/]	2AA/	1.A	0c	2a/]
2GG/	2BB/	.	.	2g/
1AA	1C	.	.	2f/
.	.	2G/	.	2e/
1BB	1D	1F	1B	1d
=117	=117	=117	=117	=117
1.EE	1BB	1G	1.G	1e
.	1C	1E	.	1.g
2FF/	.	.	2A/	.
1GG	1BB	[1E	1B	.
.	.	.	.	2f/
=118.	=118.	=118.	=118.	=118.
1AA	1AA	1E]	1c	1.e
0DD	0D	0F	0A	.
.	.	.	.	2d/
.	.	.	.	1d
=119	=119	=119	=119	=119
1r	1BB	[0.El	1B	[0.e
1.AA	1.E	.	1.c	.
2BB/	2D\	.	2B\	.
=120.	=120.	=120.	=120.	=120.
2C/	2C/	0.E_	2A/	0.e]
2D\	2BB/	.	2G/	.
0E	0C	.	0A	.
=121	=121	=121	=121	=121
0.EEl	0.BBl	0.E]	0.Bl	0.el
==	==	==	==	==
*-	*-	*-	*-	*-
!!!RDF**kern: l=long note in original notation
!!!RDF**kern: i=editorial accidental
!!!ENC:	Chris Gage 05-21-2013
!!!END:	2013/08/03/
!!!EED:	Jesse Rodin
!!!EEV:	2013/08/05/
!!!ONB:	Translated from MusicXML and edited on 2013/08/05/ by Craig Sapp
!!muse2ps: T^@{OPR}^u^@{ONM}{. }@{OTL}^C^@{COM}^i2I150v85,85,85,85,130Q16
